packages/kaspersky-hexa-ui-icons/src/iconsSVGs/16x12/FlagUy.svg

<svg width="16" height="12" viewBox="0 0 16 12" fill="none" xmlns="http://www.w3.org/2000/svg">
<g clip-path="url(#clip0_41818_3921)">
<rect x="0.25" y="0.25" width="15.5" height="11.5" rx="1.75" fill="white" stroke="#F5F5F5" stroke-width="0.5"/>
<mask id="mask0_41818_3921" style="mask-type:luminance" maskUnits="userSpaceOnUse" x="0" y="0" width="16" height="12">
<rect x="0.25" y="0.25" width="15.5" height="11.5" rx="1.75" fill="white" stroke="white" stroke-width="0.5"/>
</mask>
<g mask="url(#mask0_41818_3921)">
<path d="M16 11.9997H0V11.1999H16V11.9997ZM16 7.99968V9.60027H0V7.99968H16ZM7.61914 4.80046H16V6.40007H7.61914V4.80046ZM7.61914 1.60027H16V3.19987H7.61914V1.60027Z" fill="#0E4DC5"/>
<path d="M4.51624 2.6601L5.32288 2.17377L5.03967 3.08881L5.97229 3.00873L5.33069 3.70697L6.20374 4.04974L5.33069 4.39349L5.97229 5.09174L5.03967 5.01166L5.32288 5.9267L4.51624 5.44037L4.3844 6.38959L3.86389 5.59271L3.34338 6.38959L3.21155 5.44037L2.40491 5.9267L2.68811 5.01166L1.75549 5.09174L2.39709 4.39349L1.52405 4.04974L2.39709 3.70697L1.75549 3.00873L2.68811 3.08881L2.40491 2.17377L3.21155 2.6601L3.34338 1.7099L3.86389 2.50775L4.3844 1.7099L4.51624 2.6601ZM3.86389 2.5224C3.04159 2.5224 2.37485 3.20644 2.37463 4.04974C2.37463 4.89323 3.04146 5.57709 3.86389 5.57709C4.68631 5.57708 5.35315 4.89323 5.35315 4.04974C5.35294 3.20644 4.68618 2.52241 3.86389 2.5224ZM3.86389 2.79974C4.51004 2.79978 5.03378 3.33725 5.03381 3.99994C5.03381 4.66266 4.51006 5.2001 3.86389 5.20013C3.2177 5.20013 2.69397 4.66268 2.69397 3.99994C2.694 3.33723 3.21772 2.79974 3.86389 2.79974Z" fill="#FED443"/>
</g>
</g>
<defs>
<clipPath id="clip0_41818_3921">
<rect width="16" height="12" fill="white"/>
</clipPath>
</defs>
</svg>

<svg xmlns="http://www.w3.org/2000/svg" width="16" height="12" fill="none" viewBox="0 0 16 12"><g clip-path="url(#a)"><rect width="16" height="12" fill="#fff" stroke="#f5f5f5" rx="2"/><mask id="b" width="16" height="12" x="0" y="0" maskUnits="userSpaceOnUse" style="mask-type:luminance"><rect width="16" height="12" fill="#fff" stroke="#fff" rx="2"/></mask><g mask="url(#b)"><path fill="#0e4dc5" d="M16 11.9997H0v-.7998h16zm0-4v1.6006H0V7.9997zM7.6191 4.8005H16V6.4H7.6191zm0-3.2002H16v1.5996H7.6191z"/><path fill="#fed443" d="m4.5162 2.6601.8067-.4863-.2832.915.9326-.08-.6416.6982.873.3427-.873.3438.6416.6982-.9326-.08.2832.915-.8067-.4863-.1318.9492-.5205-.7969-.5205.7969-.1319-.9492-.8066.4863.2832-.915-.9326.08.6416-.6982-.873-.3438.873-.3427-.6416-.6983.9326.0801-.2832-.915.8066.4863.1319-.9502.5205.7979.5205-.7979zm-.6523-.1377c-.8223 0-1.489.684-1.4893 1.5273 0 .8435.6669 1.5274 1.4893 1.5274s1.4893-.6839 1.4893-1.5274c-.0003-.8433-.667-1.5273-1.4893-1.5273m0 .2773c.6461 0 1.1699.5376 1.17 1.2002 0 .6628-.5238 1.2002-1.17 1.2002S2.6939 4.6627 2.6939 4c.0001-.6627.5238-1.2002 1.17-1.2002"/></g></g><defs><clipPath id="a"><path fill="#fff" d="M0 0h16v12H0z"/></clipPath></defs></svg>
